icons/folder-astro.svg

<svg xmlns="http://www.w3.org/2000/svg" viewBox="0 0 32 32"><path d="M13.8438,7.53645l-1.2875-1.0729A2.00019,2.00019,0,0,0,11.2759,6H4A2,2,0,0,0,2,8V24a2,2,0,0,0,2,2H28a2,2,0,0,0,2-2V10a2,2,0,0,0-2-2H15.1241A2,2,0,0,1,13.8438,7.53645Z" style="fill:#7c4dff"/><path d="M19.33333,27c0-.81075.08134-1.5075,1.3-1.5075,0,2.60775,1.5,4.5075,2.7,4.5075C23.33333,26.68125,26,26.8785,26,24H18C18,25.275,18.158,26.68125,19.33333,27Zm5.92308-16.38462L30,22H27.66667a4,4,0,0,1-3.69231-2.46154l-1.51282-3.63078a.5.5,0,0,0-.92308,0l-1.51282,3.63078A4,4,0,0,1,16.33333,22H14l4.74359-11.38462A1,1,0,0,1,19.66667,10h4.66666A1,1,0,0,1,25.25641,10.61538Z" style="fill:#d1c4e9"/></svg>

<svg xmlns="http://www.w3.org/2000/svg" viewBox="0 0 32 32"><path fill="#7c4dff" d="m13.844 7.536-1.288-1.072A2 2 0 0 0 11.276 6H4a2 2 0 0 0-2 2v16a2 2 0 0 0 2 2h24a2 2 0 0 0 2-2V10a2 2 0 0 0-2-2H15.124a2 2 0 0 1-1.28-.464Z"/><path fill="#d1c4e9" d="M19.333 27c0-.81.082-1.508 1.3-1.508 0 2.608 1.5 4.508 2.7 4.508 0-3.319 2.667-3.122 2.667-6h-8c0 1.275.158 2.681 1.333 3Zm5.923-16.385L30 22h-2.333a4 4 0 0 1-3.693-2.462l-1.512-3.63a.5.5 0 0 0-.924 0l-1.512 3.63A4 4 0 0 1 16.333 22H14l4.744-11.385a1 1 0 0 1 .923-.615h4.666a1 1 0 0 1 .923.615Z"/></svg>
